static/printer.svg

<svg width="16" height="15" viewBox="0 0 16 15" fill="none" xmlns="http://www.w3.org/2000/svg">
<path d="M12.5 0.75V3.73828H3.5V0.75H12.5ZM12.7109 7.28906C12.8516 7.42969 13.0273 7.5 13.2383 7.5C13.4492 7.5 13.625 7.42969 13.7656 7.28906C13.9297 7.14844 14.0117 6.97266 14.0117 6.76172C14.0117 6.55078 13.9297 6.375 13.7656 6.23438C13.625 6.07031 13.4492 5.98828 13.2383 5.98828C13.0273 5.98828 12.8516 6.07031 12.7109 6.23438C12.5703 6.375 12.5 6.55078 12.5 6.76172C12.5 6.97266 12.5703 7.14844 12.7109 7.28906ZM10.9883 12.7383V9.01172H5.01172V12.7383H10.9883ZM13.2383 4.51172C13.8477 4.51172 14.375 4.73437 14.8203 5.17969C15.2656 5.625 15.4883 6.15234 15.4883 6.76172V11.2617H12.5V14.25H3.5V11.2617H0.511719V6.76172C0.511719 6.15234 0.734375 5.625 1.17969 5.17969C1.625 4.73437 2.15234 4.51172 2.76172 4.51172H13.2383Z" fill="#00A040"/>
</svg>

<?xml version="1.0" encoding="utf-8"?>
<!-- Generator: Adobe Illustrator 23.1.1, SVG Export Plug-In . SVG Version: 6.00 Build 0)  -->
<svg version="1.1" id="レイヤー_1" xmlns="http://www.w3.org/2000/svg" xmlns:xlink="http://www.w3.org/1999/xlink" x="0px"
	 y="0px" viewBox="0 0 16 15" style="enable-background:new 0 0 16 15;" xml:space="preserve">
<style type="text/css">
	.st0{fill:#456DD1;}
</style>
<path class="st0" d="M12.5,0.7v3h-9v-3H12.5z M12.7,7.3c0.1,0.1,0.3,0.2,0.5,0.2c0.2,0,0.4-0.1,0.5-0.2C13.9,7.1,14,7,14,6.8
	c0-0.2-0.1-0.4-0.2-0.5C13.6,6.1,13.4,6,13.2,6c-0.2,0-0.4,0.1-0.5,0.2c-0.1,0.1-0.2,0.3-0.2,0.5C12.5,7,12.6,7.1,12.7,7.3z
	 M11,12.7V9H5v3.7H11z M13.2,4.5c0.6,0,1.1,0.2,1.6,0.7c0.4,0.4,0.7,1,0.7,1.6v4.5h-3v3h-9v-3h-3V6.8c0-0.6,0.2-1.1,0.7-1.6
	c0.4-0.4,1-0.7,1.6-0.7H13.2z"/>
</svg>
